svg/emoji_u1f68b.svg

<?xml version="1.0" encoding="UTF-8"?>
<svg width="128" height="128" enable-background="new 0 0 128 128" xmlns="http://www.w3.org/2000/svg"><rect x="3.77" y="108.02" width="120.31" height="15.98" fill="#BDBDBD"/><path d="m46 12h-36c-1.1 0-2 0.9-2 2s0.9 2 2 2h16.49l-11.45 9.53c-0.35 0.29-0.55 0.73-0.54 1.18 0.01 0.46 0.22 0.88 0.58 1.16l12.08 9.32c0.27 0.21 0.59 0.31 0.92 0.31s0.65-0.11 0.92-0.32l11.92-9.32c0.36-0.28 0.57-0.7 0.58-1.15s-0.19-0.88-0.53-1.17l-11.3-9.54h16.33c1.1 0 2-0.9 2-2s-0.9-2-2-2zm-17.92 22.1-9.68-7.46 9.68-8.06 9.55 8.06-9.55 7.46z" fill="#757575"/><g opacity=".2"><path d="m46 13c0.55 0 1 0.45 1 1s-0.45 1-1 1h-16.33c-0.42 0-0.8 0.26-0.94 0.66-0.14 0.39-0.03 0.84 0.29 1.11l11.3 9.54c0.12 0.1 0.18 0.24 0.18 0.39s-0.07 0.29-0.19 0.38l-11.92 9.32c-0.11 0.09-0.23 0.11-0.31 0.11s-0.19-0.02-0.31-0.1l-12.08-9.32c-0.12-0.09-0.19-0.23-0.19-0.38s0.06-0.3 0.18-0.4l11.45-9.53c0.32-0.27 0.44-0.71 0.3-1.11s-0.52-0.66-0.94-0.66h-16.49c-0.55 0-1-0.45-1-1s0.45-1 1-1h36m-17.92 22.09c0.22 0 0.43-0.07 0.62-0.21l9.55-7.46c0.24-0.19 0.38-0.47 0.38-0.77s-0.12-0.59-0.35-0.78l-9.55-8.06c-0.19-0.16-0.42-0.24-0.65-0.24s-0.45 0.08-0.64 0.23l-9.68 8.06c-0.23 0.19-0.37 0.48-0.36 0.79 0.01 0.3 0.15 0.59 0.39 0.77l9.68 7.46c0.18 0.14 0.39 0.21 0.61 0.21m17.92-23.1h-36c-1.1 0-2 0.9-2 2s0.9 2 2 2h16.49l-11.45 9.53c-0.35 0.29-0.55 0.73-0.54 1.18 0.01 0.46 0.22 0.88 0.58 1.16l12.08 9.32c0.27 0.21 0.59 0.31 0.92 0.31s0.65-0.11 0.92-0.32l11.92-9.32c0.36-0.28 0.57-0.7 0.58-1.15s-0.19-0.88-0.53-1.17l-11.3-9.54h16.33c1.1 0 2-0.9 2-2s-0.9-2-2-2zm-17.92 22.1-9.68-7.46 9.68-8.06 9.55 8.06-9.55 7.46z" fill="#424242"/></g><path d="m119 12h-36c-1.1 0-2 0.9-2 2s0.9 2 2 2h16.49l-11.45 9.53c-0.35 0.29-0.55 0.73-0.54 1.18 0.01 0.46 0.22 0.88 0.58 1.16l12.08 9.32c0.27 0.21 0.59 0.31 0.92 0.31s0.65-0.11 0.92-0.32l11.92-9.32c0.36-0.28 0.57-0.7 0.58-1.15s-0.19-0.88-0.53-1.17l-11.3-9.54h16.33c1.1 0 2-0.9 2-2s-0.9-2-2-2zm-17.92 22.1-9.68-7.46 9.68-8.06 9.55 8.06-9.55 7.46z" fill="#757575"/><g opacity=".2"><path d="m119 13c0.55 0 1 0.45 1 1s-0.45 1-1 1h-16.33c-0.42 0-0.8 0.26-0.94 0.66-0.14 0.39-0.03 0.84 0.29 1.11l11.3 9.54c0.12 0.1 0.18 0.24 0.18 0.39s-0.07 0.29-0.19 0.38l-11.92 9.32c-0.11 0.09-0.23 0.11-0.31 0.11s-0.19-0.02-0.31-0.1l-12.08-9.32c-0.12-0.09-0.19-0.23-0.19-0.38s0.06-0.3 0.18-0.4l11.45-9.53c0.32-0.27 0.44-0.71 0.3-1.11s-0.52-0.66-0.94-0.66h-16.49c-0.55 0-1-0.45-1-1s0.45-1 1-1h36m-17.92 22.09c0.22 0 0.43-0.07 0.62-0.21l9.55-7.46c0.24-0.19 0.38-0.47 0.38-0.77s-0.12-0.59-0.35-0.78l-9.55-8.06c-0.19-0.16-0.42-0.24-0.65-0.24s-0.45 0.08-0.64 0.23l-9.68 8.06c-0.23 0.19-0.37 0.48-0.36 0.79 0.01 0.3 0.15 0.59 0.39 0.77l9.68 7.46c0.18 0.14 0.39 0.21 0.61 0.21m17.92-23.1h-36c-1.1 0-2 0.9-2 2s0.9 2 2 2h16.49l-11.45 9.53c-0.35 0.29-0.55 0.73-0.54 1.18 0.01 0.46 0.22 0.88 0.58 1.16l12.08 9.32c0.27 0.21 0.59 0.31 0.92 0.31s0.65-0.11 0.92-0.32l11.92-9.32c0.36-0.28 0.57-0.7 0.58-1.15s-0.19-0.88-0.53-1.17l-11.3-9.54h16.33c1.1 0 2-0.9 2-2s-0.9-2-2-2zm-17.92 22.1-9.68-7.46 9.68-8.06 9.55 8.06-9.55 7.46z" fill="#424242"/></g><rect x="3.77" y="108" width="120.31" height="7.98" fill="#424242"/><g opacity=".2"><path d="m122 110v12h-116v-12h116m2-2h-120v16h120v-16z" fill="#424242"/></g><circle cx="18" cy="105" r="6"/><circle cx="30" cy="105" r="6"/><circle cx="42" cy="105" r="6"/><circle cx="86" cy="105" r="6"/><circle cx="98" cy="105" r="6"/><circle cx="110" cy="105" r="6"/><path d="M124,42c0-3.3-2.7-6-6-6H10c-3.3,0-6,2.7-6,6v1.75h120V42z" fill="#6D4C41"/><linearGradient id="a" x1="64" x2="64" y1="121.92" y2="61" gradientUnits="userSpaceOnUse"><stop stop-color="#FBC02D" offset=".005989"/><stop stop-color="#FFEB3B" offset=".9833"/></linearGradient><path d="M4,43.75v54.92c0,3.3,2.7,6,6,6h108c3.3,0,6-2.7,6-6V43.75H4z" fill="url(#a)"/><rect x="4" y="43.75" width="120" height="32.25" fill="#eee"/><path d="m24.41 72.12h-10.41c-2.21 0-4-1.79-4-4v-16.08c0-2.21 1.79-4 4-4h10.41c2.21 0 4 1.79 4 4v16.08c0 2.21-1.79 4-4 4z" fill="#4FC3F7"/><path d="m46.72 72.12h-10.41c-2.21 0-4-1.79-4-4v-16.08c0-2.21 1.79-4 4-4h10.41c2.21 0 4 1.79 4 4v16.08c0 2.21-1.79 4-4 4z" fill="#4FC3F7"/><path d="m69.04 72.12h-10.41c-2.21 0-4-1.79-4-4v-16.08c0-2.21 1.79-4 4-4h10.41c2.21 0 4 1.79 4 4v16.08c0 2.21-1.79 4-4 4z" fill="#4FC3F7"/><path d="m91.35 72.12h-10.41c-2.21 0-4-1.79-4-4v-16.08c0-2.21 1.79-4 4-4h10.41c2.21 0 4 1.79 4 4v16.08c0 2.21-1.79 4-4 4z" fill="#4FC3F7"/><path d="m113.67 72.12h-10.41c-2.21 0-4-1.79-4-4v-16.08c0-2.21 1.79-4 4-4h10.41c2.21 0 4 1.79 4 4v16.08c0 2.21-1.79 4-4 4z" fill="#4FC3F7"/><g opacity=".2"><path d="m118 39c1.49 0 3 0.91 3 2.67v56.95c0 1.79-1.51 3.38-3 3.38h-107.71c-1.58 0-3.29-1.69-3.29-3.38v-56.95c0-1.76 1.51-2.67 3-2.67h108m0-3h-108c-3.3 0-6 2.69-6 5.67v56.95c0 3.32 2.99 6.13 6.29 6.13l107.71-0.08c3.3 0 6-2.73 6-6.05v-56.62c0-3.32-2.7-6-6-6z" fill="#424242"/></g><g opacity=".2"><path d="m24.41 50.04c1.1 0 2 0.9 2 2v16.08c0 1.1-0.9 2-2 2h-10.41c-1.1 0-2-0.9-2-2v-16.08c0-1.1 0.9-2 2-2h10.41m0-2h-10.41c-2.21 0-4 1.79-4 4v16.08c0 2.21 1.79 4 4 4h10.41c2.21 0 4-1.79 4-4v-16.08c0-2.21-1.79-4-4-4z" fill="#424242"/></g><g opacity=".2"><path d="m46.72 50.04c1.1 0 2 0.9 2 2v16.08c0 1.1-0.9 2-2 2h-10.41c-1.1 0-2-0.9-2-2v-16.08c0-1.1 0.9-2 2-2h10.41m0-2h-10.41c-2.21 0-4 1.79-4 4v16.08c0 2.21 1.79 4 4 4h10.41c2.21 0 4-1.79 4-4v-16.08c0-2.21-1.79-4-4-4z" fill="#424242"/></g><g opacity=".2"><path d="m69.04 50.04c1.1 0 2 0.9 2 2v16.08c0 1.1-0.9 2-2 2h-10.41c-1.1 0-2-0.9-2-2v-16.08c0-1.1 0.9-2 2-2h10.41m0-2h-10.41c-2.21 0-4 1.79-4 4v16.08c0 2.21 1.79 4 4 4h10.41c2.21 0 4-1.79 4-4v-16.08c0-2.21-1.79-4-4-4z" fill="#424242"/></g><g opacity=".2"><path d="m91.35 50.04c1.1 0 2 0.9 2 2v16.08c0 1.1-0.9 2-2 2h-10.41c-1.1 0-2-0.9-2-2v-16.08c0-1.1 0.9-2 2-2h10.41m0-2h-10.41c-2.21 0-4 1.79-4 4v16.08c0 2.21 1.79 4 4 4h10.41c2.21 0 4-1.79 4-4v-16.08c0-2.21-1.79-4-4-4z" fill="#424242"/></g><g opacity=".2"><path d="m113.67 50.04c1.1 0 2 0.9 2 2v16.08c0 1.1-0.9 2-2 2h-10.41c-1.1 0-2-0.9-2-2v-16.08c0-1.1 0.9-2 2-2h10.41m0-2h-10.41c-2.21 0-4 1.79-4 4v16.08c0 2.21 1.79 4 4 4h10.41c2.21 0 4-1.79 4-4v-16.08c0-2.21-1.79-4-4-4z" fill="#424242"/></g></svg>

<svg width="128" height="128" style="enable-background:new 0 0 128 128;" xmlns="http://www.w3.org/2000/svg" xmlns:xlink="http://www.w3.org/1999/xlink">
  <rect height="15.98" style="fill:#BDBDBD;" width="120.31" x="3.77" y="108.02"/>
  <g>
    <path d="M46,12H10c-1.1,0-2,0.9-2,2c0,1.1,0.9,2,2,2h16.49l-11.45,9.53c-0.35,0.29-0.55,0.73-0.54,1.18 c0.01,0.46,0.22,0.88,0.58,1.16l12.08,9.32c0.27,0.21,0.59,0.31,0.92,0.31c0.33,0,0.65-0.11,0.92-0.32l11.92-9.32 c0.36-0.28,0.57-0.7,0.58-1.15c0.01-0.45-0.19-0.88-0.53-1.17L29.67,16H46c1.1,0,2-0.9,2-2C48,12.9,47.1,12,46,12z M28.08,34.1 l-9.68-7.46l9.68-8.06l9.55,8.06L28.08,34.1z" style="fill:#757575;"/>
    <g style="opacity:0.2;">
      <path d="M46,13c0.55,0,1,0.45,1,1s-0.45,1-1,1H29.67c-0.42,0-0.8,0.26-0.94,0.66 c-0.14,0.39-0.03,0.84,0.29,1.11l11.3,9.54c0.12,0.1,0.18,0.24,0.18,0.39c0,0.15-0.07,0.29-0.19,0.38l-11.92,9.32 c-0.11,0.09-0.23,0.11-0.31,0.11c-0.08,0-0.19-0.02-0.31-0.1l-12.08-9.32c-0.12-0.09-0.19-0.23-0.19-0.38 c0-0.15,0.06-0.3,0.18-0.4l11.45-9.53c0.32-0.27,0.44-0.71,0.3-1.11c-0.14-0.4-0.52-0.66-0.94-0.66H10c-0.55,0-1-0.45-1-1 s0.45-1,1-1H46 M28.08,35.1c0.22,0,0.43-0.07,0.62-0.21l9.55-7.46c0.24-0.19,0.38-0.47,0.38-0.77s-0.12-0.59-0.35-0.78l-9.55-8.06 c-0.19-0.16-0.42-0.24-0.65-0.24c-0.23,0-0.45,0.08-0.64,0.23l-9.68,8.06c-0.23,0.19-0.37,0.48-0.36,0.79 c0.01,0.3,0.15,0.59,0.39,0.77l9.68,7.46C27.65,35.03,27.86,35.1,28.08,35.1 M46,12H10c-1.1,0-2,0.9-2,2c0,1.1,0.9,2,2,2h16.49 l-11.45,9.53c-0.35,0.29-0.55,0.73-0.54,1.18c0.01,0.46,0.22,0.88,0.58,1.16l12.08,9.32c0.27,0.21,0.59,0.31,0.92,0.31 c0.33,0,0.65-0.11,0.92-0.32l11.92-9.32c0.36-0.28,0.57-0.7,0.58-1.15c0.01-0.45-0.19-0.88-0.53-1.17L29.67,16H46c1.1,0,2-0.9,2-2 C48,12.9,47.1,12,46,12L46,12z M28.08,34.1l-9.68-7.46l9.68-8.06l9.55,8.06L28.08,34.1L28.08,34.1z" style="fill:#424242;"/>
    </g>
  </g>
  <g>
    <path d="M119,12H83c-1.1,0-2,0.9-2,2c0,1.1,0.9,2,2,2h16.49l-11.45,9.53c-0.35,0.29-0.55,0.73-0.54,1.18 c0.01,0.46,0.22,0.88,0.58,1.16l12.08,9.32c0.27,0.21,0.59,0.31,0.92,0.31c0.33,0,0.65-0.11,0.92-0.32l11.92-9.32 c0.36-0.28,0.57-0.7,0.58-1.15c0.01-0.45-0.19-0.88-0.53-1.17L102.67,16H119c1.1,0,2-0.9,2-2C121,12.9,120.1,12,119,12z M101.08,34.1l-9.68-7.46l9.68-8.06l9.55,8.06L101.08,34.1z" style="fill:#757575;"/>
    <g style="opacity:0.2;">
      <path d="M119,13c0.55,0,1,0.45,1,1s-0.45,1-1,1h-16.33c-0.42,0-0.8,0.26-0.94,0.66 c-0.14,0.39-0.03,0.84,0.29,1.11l11.3,9.54c0.12,0.1,0.18,0.24,0.18,0.39c0,0.15-0.07,0.29-0.19,0.38l-11.92,9.32 c-0.11,0.09-0.23,0.11-0.31,0.11c-0.08,0-0.19-0.02-0.31-0.1l-12.08-9.32c-0.12-0.09-0.19-0.23-0.19-0.38 c0-0.15,0.06-0.3,0.18-0.4l11.45-9.53c0.32-0.27,0.44-0.71,0.3-1.11c-0.14-0.4-0.52-0.66-0.94-0.66H83c-0.55,0-1-0.45-1-1 s0.45-1,1-1H119 M101.08,35.1c0.22,0,0.43-0.07,0.62-0.21l9.55-7.46c0.24-0.19,0.38-0.47,0.38-0.77s-0.12-0.59-0.35-0.78 l-9.55-8.06c-0.19-0.16-0.42-0.24-0.65-0.24c-0.23,0-0.45,0.08-0.64,0.23l-9.68,8.06c-0.23,0.19-0.37,0.48-0.36,0.79 c0.01,0.3,0.15,0.59,0.39,0.77l9.68,7.46C100.65,35.03,100.86,35.1,101.08,35.1 M119,12H83c-1.1,0-2,0.9-2,2c0,1.1,0.9,2,2,2 h16.49l-11.45,9.53c-0.35,0.29-0.55,0.73-0.54,1.18c0.01,0.46,0.22,0.88,0.58,1.16l12.08,9.32c0.27,0.21,0.59,0.31,0.92,0.31 c0.33,0,0.65-0.11,0.92-0.32l11.92-9.32c0.36-0.28,0.57-0.7,0.58-1.15c0.01-0.45-0.19-0.88-0.53-1.17L102.67,16H119 c1.1,0,2-0.9,2-2C121,12.9,120.1,12,119,12L119,12z M101.08,34.1l-9.68-7.46l9.68-8.06l9.55,8.06L101.08,34.1L101.08,34.1z" style="fill:#424242;"/>
    </g>
  </g>
  <rect height="7.98" style="fill:#424242;" width="120.31" x="3.77" y="108"/>
  <g style="opacity:0.2;">
    <path d="M122,110v5.98V122H6v-6.02V110H122 M124,108H4v0.02v7.97V124h120v-8.02v-7.97V108L124,108z" style="fill:#424242;"/>
  </g>
  <circle cx="18" cy="105" r="6"/>
  <circle cx="30" cy="105" r="6"/>
  <circle cx="42" cy="105" r="6"/>
  <circle cx="86" cy="105" r="6"/>
  <circle cx="98" cy="105" r="6"/>
  <circle cx="110" cy="105" r="6"/>
  <path d="M124,42c0-3.3-2.7-6-6-6H10c-3.3,0-6,2.7-6,6v1.75h120V42z" style="fill:#6D4C41;"/>
  <linearGradient id="SVGID_1_" gradientUnits="userSpaceOnUse" x1="64" x2="64" y1="121.9166" y2="61">
    <stop offset="5.989011e-03" style="stop-color:#FBC02D"/>
    <stop offset="0.9833" style="stop-color:#FFEB3B"/>
  </linearGradient>
  <path d="M4,43.75v54.92c0,3.3,2.7,6,6,6h108c3.3,0,6-2.7,6-6V43.75H4z" style="fill:url(#SVGID_1_);"/>
  <rect height="32.25" style="fill:#EEEEEE;" width="120" x="4" y="43.75"/>
  <path d="M24.41,72.12H14c-2.21,0-4-1.79-4-4V52.04c0-2.21,1.79-4,4-4h10.41c2.21,0,4,1.79,4,4v16.08 C28.41,70.33,26.62,72.12,24.41,72.12z" style="fill:#4FC3F7;"/>
  <path d="M46.72,72.12H36.31c-2.21,0-4-1.79-4-4V52.04c0-2.21,1.79-4,4-4h10.41c2.21,0,4,1.79,4,4v16.08 C50.72,70.33,48.93,72.12,46.72,72.12z" style="fill:#4FC3F7;"/>
  <path d="M69.04,72.12H58.63c-2.21,0-4-1.79-4-4V52.04c0-2.21,1.79-4,4-4h10.41c2.21,0,4,1.79,4,4v16.08 C73.04,70.33,71.25,72.12,69.04,72.12z" style="fill:#4FC3F7;"/>
  <path d="M91.35,72.12H80.94c-2.21,0-4-1.79-4-4V52.04c0-2.21,1.79-4,4-4h10.41c2.21,0,4,1.79,4,4v16.08 C95.35,70.33,93.56,72.12,91.35,72.12z" style="fill:#4FC3F7;"/>
  <path d="M113.67,72.12h-10.41c-2.21,0-4-1.79-4-4V52.04c0-2.21,1.79-4,4-4h10.41c2.21,0,4,1.79,4,4v16.08 C117.67,70.33,115.88,72.12,113.67,72.12z" style="fill:#4FC3F7;"/>
  <g style="opacity:0.2;">
    <path d="M118,39c1.49,0,3,0.91,3,2.67v56.95c0,1.79-1.51,3.38-3,3.38H10.29C8.71,102,7,100.31,7,98.62V41.67 C7,39.91,8.51,39,10,39H118 M118,36H10c-3.3,0-6,2.69-6,5.67v56.95c0,3.32,2.99,6.13,6.29,6.13L118,104.67c3.3,0,6-2.73,6-6.05V42 C124,38.68,121.3,36,118,36L118,36z" style="fill:#424242;"/>
  </g>
  <g style="opacity:0.2;">
    <path d="M24.41,50.04c1.1,0,2,0.9,2,2v16.08c0,1.1-0.9,2-2,2H14c-1.1,0-2-0.9-2-2V52.04c0-1.1,0.9-2,2-2 H24.41 M24.41,48.04H14c-2.21,0-4,1.79-4,4v16.08c0,2.21,1.79,4,4,4h10.41c2.21,0,4-1.79,4-4V52.04 C28.41,49.83,26.62,48.04,24.41,48.04L24.41,48.04z" style="fill:#424242;"/>
  </g>
  <g style="opacity:0.2;">
    <path d="M46.72,50.04c1.1,0,2,0.9,2,2v16.08c0,1.1-0.9,2-2,2H36.31c-1.1,0-2-0.9-2-2V52.04c0-1.1,0.9-2,2-2 H46.72 M46.72,48.04H36.31c-2.21,0-4,1.79-4,4v16.08c0,2.21,1.79,4,4,4h10.41c2.21,0,4-1.79,4-4V52.04 C50.72,49.83,48.93,48.04,46.72,48.04L46.72,48.04z" style="fill:#424242;"/>
  </g>
  <g style="opacity:0.2;">
    <path d="M69.04,50.04c1.1,0,2,0.9,2,2v16.08c0,1.1-0.9,2-2,2H58.63c-1.1,0-2-0.9-2-2V52.04c0-1.1,0.9-2,2-2 H69.04 M69.04,48.04H58.63c-2.21,0-4,1.79-4,4v16.08c0,2.21,1.79,4,4,4h10.41c2.21,0,4-1.79,4-4V52.04 C73.04,49.83,71.25,48.04,69.04,48.04L69.04,48.04z" style="fill:#424242;"/>
  </g>
  <g style="opacity:0.2;">
    <path d="M91.35,50.04c1.1,0,2,0.9,2,2v16.08c0,1.1-0.9,2-2,2H80.94c-1.1,0-2-0.9-2-2V52.04c0-1.1,0.9-2,2-2 H91.35 M91.35,48.04H80.94c-2.21,0-4,1.79-4,4v16.08c0,2.21,1.79,4,4,4h10.41c2.21,0,4-1.79,4-4V52.04 C95.35,49.83,93.56,48.04,91.35,48.04L91.35,48.04z" style="fill:#424242;"/>
  </g>
  <g style="opacity:0.2;">
    <path d="M113.67,50.04c1.1,0,2,0.9,2,2v16.08c0,1.1-0.9,2-2,2h-10.41c-1.1,0-2-0.9-2-2V52.04 c0-1.1,0.9-2,2-2H113.67 M113.67,48.04h-10.41c-2.21,0-4,1.79-4,4v16.08c0,2.21,1.79,4,4,4h10.41c2.21,0,4-1.79,4-4V52.04 C117.67,49.83,115.88,48.04,113.67,48.04L113.67,48.04z" style="fill:#424242;"/>
  </g>
</svg>
